X: 552
T: Wuli shenshan cuen
L: 1/8
M: 2/4
K: Eb
f2f f [I:setbarnb 1]| 
f ge2 | 
f2f2 | 
f ge2 | 
e c B G | 
c2e c | 
B2B G | 
F4 |]

@@@ Tune index: 9426
